X: 541
T: Guijie shaoshu
%%abc-version 2.0
%%abcx-abcm2ps-target-version 5.9.1 (29 Sep 2008)
%%abc-creator hum2abc beta
%%abcx-conversion-date 2013/10/02 07:52:30
%%abc-edited-by Helmut Schaffrath
%%humdrum-veritas 3951451394
%%humdrum-veritas-data 1222754785
%%continueall 1
%%barnumbers 0
L: 1/8
M: 2/4
K: G
G> F E D [I:setbarnb 1]| 
G2A d | 
G> A d A | 
F ED2 | 
A> d A/ B/ A/ G/ | 
A D G3/ B/ | 
G D E/ D/ E | 
D4 |]  



